X:96
T:King Of The Pipers 1 (Kilrane) (j)
B:NFID.057b
096king_pk
S:JD
N:The source shows the sixth measure of the B part in 9/8 time,
as follows |geg fdg eAG|. On the presumption that this is a
performer or scribal error, I have removed the first triplet.
L:1/8
M:6/8
R:jig
Q:320
K:D
d|: A2D B2G|ABG FED|A2D B2D|G=cG GFE|
"5"A2D B2G|ABG FDB,|=CEG =cBA|G=cG GFE:|
"9"dfa afd|dfd cAG|F2A =cAF|GAG GFE|
"13"dfa afd|fdg eAG|F2A =cAF|GAG GFE:|
"17"dfd dfd|dfd cAF|dfd dAF|GFE GFE|
"21"dfd cec|Bcd AFD|=CEG =cBA|G=cG GFE:|
"25"dDD cDD|BDD ADD|dDD cDD|G=cG GFE|
"29"dDD cDD|BDD ADD|=CEG =cBA|G=cG GFE:|

%%%

